X:1
T:Title
%%score ( 1 2 ) { 3 | 4 }
L:1/8
Q:1/4=100
M:4/4
K:G
V:1 treble nm="Grand Piano, Piano"
V:2 treble 
V:3 bass nm="Grand Piano, Piano"
V:4 bass 
V:1
 [B,D]4 [CE]2 [EA]2 | [DG]4 [DF]4 | z4 c4 | [Dc]6 [Dc]2 | [DB]4 [=FB]4 | [EA]2 E2 [EF]2 [EG]2 | %6
w: Al migh ty~|Fa ther,~|our~|prayer,~ And~|bless~ all~|souls~ that~ wait~ be|
 [DG]4 [CF]4 | [B,G]8 | [CG]8 | [B,G]8 |] %10
w: fore~ *|Thee.~|A|men.~|
V:2
 x8 | x8 | G4 F2 E2 | x8 | x8 | x8 | x8 | x8 | x8 | x8 |] %10
V:3
 G,4 G,2 A,2 | B,4 A,2 C2 | B,4 C2 B,2 | A,6 A,2 | B,4[K:treble] D4 | ^C2 C2 =C2 C2 | A,4 z4 | %7
 D,8 | E,8 | D,8 |] %10
V:4
 G,,4 C,2 C,2 | D,4 D,4 | E,4 A,2 G,2 | F,6 F,2 | G,4 ^G,4 | A,2 A,2 A,,2 A,,2 | D,4 D,4 | G,,8 | %8
 C,8 | G,,8 |] %10

